flaticon/emoticons/heisenberg.svg

<svg xmlns="http://www.w3.org/2000/svg" width="32" height="32" viewBox="0 0 24 24">
    <path d="M 21.703125 5.195312 L 19.964844 5.195312 L 19.152344 3.332031 C 19.042969 2.785156 18.382812 1.277344 18.128906 0.945312 C 17.488281 0.109375 16.347656 -0.214844 15.25 0.144531 L 12.640625 1.289062 C 12.253906 1.414062 11.832031 1.410156 11.445312 1.273438 L 8.433594 0.1875 C 7.859375 -0.0195312 7.203125 0.046875 6.59375 0.371094 C 5.828125 0.785156 5.226562 1.546875 5.03125 2.351562 C 5.015625 2.398438 4.953125 2.546875 4.886719 2.710938 C 4.738281 3.085938 4.679688 3.234375 4.65625 3.316406 L 3.835938 5.195312 L 2.296875 5.195312 C 1.304688 5.195312 0.5 6.003906 0.5 6.996094 C 0.5 7.988281 1.304688 8.796875 2.296875 8.796875 L 3.097656 8.796875 L 3.097656 20.398438 C 3.097656 21.503906 3.996094 22.398438 5.097656 22.398438 L 6.300781 22.398438 L 6.300781 23.078125 C 6.300781 23.585938 6.714844 24 7.222656 24 L 16.578125 24 C 17.085938 24 17.5 23.585938 17.5 23.078125 L 17.5 22.398438 L 18.703125 22.398438 C 19.804688 22.398438 20.703125 21.503906 20.703125 20.398438 L 20.703125 8.796875 L 21.703125 8.796875 C 22.695312 8.796875 23.5 7.988281 23.5 6.996094 C 23.5 6.003906 22.695312 5.195312 21.703125 5.195312 Z M 5.402344 3.609375 C 5.414062 3.574219 5.417969 3.578125 5.421875 3.542969 C 5.441406 3.480469 5.558594 3.183594 5.628906 3.007812 C 5.757812 2.691406 5.789062 2.613281 5.800781 2.558594 C 5.949219 1.960938 6.40625 1.378906 6.972656 1.078125 C 7.261719 0.921875 7.699219 0.773438 8.164062 0.941406 L 11.175781 2.023438 C 11.726562 2.222656 12.335938 2.230469 12.925781 2.035156 L 15.539062 0.894531 C 16.273438 0.648438 17.058594 0.867188 17.492188 1.433594 C 17.695312 1.695312 18.328125 3.1875 18.371094 3.503906 C 18.375 3.539062 18.382812 3.574219 18.398438 3.609375 L 19.089844 5.199219 L 4.710938 5.199219 Z M 16.699219 23.078125 C 16.699219 23.144531 16.644531 23.199219 16.578125 23.199219 L 7.222656 23.199219 C 7.152344 23.199219 7.097656 23.144531 7.097656 23.078125 L 7.097656 22.398438 L 16.699219 22.398438 Z M 15.902344 21.601562 L 7.898438 21.601562 L 7.898438 18 C 7.898438 17.335938 8.4375 16.800781 9.101562 16.800781 L 14.699219 16.800781 C 15.363281 16.800781 15.902344 17.335938 15.902344 18 Z M 19.902344 16.035156 C 18.769531 16.226562 17.902344 17.210938 17.902344 18.398438 L 17.902344 19.597656 C 17.902344 19.820312 18.078125 20 18.300781 20 C 18.523438 20 18.703125 19.820312 18.703125 19.597656 L 18.703125 18.398438 C 18.703125 17.65625 19.214844 17.035156 19.902344 16.855469 L 19.902344 20.398438 C 19.902344 21.0625 19.363281 21.601562 18.703125 21.601562 L 16.699219 21.601562 L 16.699219 18 C 16.699219 16.894531 15.804688 16 14.699219 16 L 9.101562 16 C 7.996094 16 7.097656 16.894531 7.097656 18 L 7.097656 21.601562 L 5.097656 21.601562 C 4.4375 21.601562 3.898438 21.0625 3.898438 20.398438 L 3.898438 16.855469 C 4.585938 17.035156 5.097656 17.65625 5.097656 18.398438 L 5.097656 19.597656 C 5.097656 19.820312 5.277344 20 5.5 20 C 5.71875 20 5.898438 19.820312 5.898438 19.597656 L 5.898438 18.398438 C 5.898438 17.210938 5.03125 16.226562 3.898438 16.035156 L 3.898438 14.605469 C 4.445312 15.542969 5.183594 15.878906 5.859375 15.945312 C 6.203125 15.980469 6.535156 16 6.855469 16 C 8.429688 16 9.699219 15.574219 10.632812 14.730469 C 11.261719 14.164062 11.652344 13.480469 11.898438 12.820312 C 12.144531 13.480469 12.539062 14.164062 13.167969 14.730469 C 14.101562 15.574219 15.367188 16 16.945312 16 C 17.265625 16 17.597656 15.980469 17.941406 15.945312 C 18.613281 15.878906 19.355469 15.542969 19.902344 14.605469 Z M 3.902344 10.800781 C 6.265625 9.625 9.128906 9.625 11.492188 10.800781 C 11.460938 11.527344 11.246094 13.097656 10.09375 14.136719 C 9.148438 14.992188 7.75 15.332031 5.9375 15.148438 C 4.320312 14.988281 3.929688 12.75 3.902344 10.800781 Z M 12.304688 10.800781 C 14.667969 9.625 17.535156 9.625 19.898438 10.800781 C 19.871094 12.75 19.480469 14.988281 17.859375 15.148438 C 16.046875 15.332031 14.652344 14.992188 13.703125 14.136719 C 12.554688 13.097656 12.339844 11.527344 12.304688 10.800781 Z M 19.902344 9.921875 C 17.371094 8.796875 14.378906 8.859375 11.898438 10.113281 C 9.421875 8.859375 6.429688 8.796875 3.898438 9.921875 L 3.898438 8.796875 L 19.902344 8.796875 Z M 21.703125 7.996094 L 2.296875 7.996094 C 1.746094 7.996094 1.296875 7.550781 1.296875 6.996094 C 1.296875 6.445312 1.746094 5.996094 2.296875 5.996094 L 21.703125 5.996094 C 22.253906 5.996094 22.703125 6.445312 22.703125 6.996094 C 22.703125 7.550781 22.253906 7.996094 21.703125 7.996094 Z M 21.703125 7.996094"/>
    <path d="M8.492188 12.796875C8.492188 13.238281 8.136719 13.597656 7.695312 13.597656 7.25 13.597656 6.894531 13.238281 6.894531 12.796875 6.894531 12.355469 7.25 12 7.695312 12 8.136719 12 8.492188 12.355469 8.492188 12.796875zM16.894531 12.796875C16.894531 13.238281 16.535156 13.597656 16.09375 13.597656 15.652344 13.597656 15.292969 13.238281 15.292969 12.796875 15.292969 12.355469 15.652344 12 16.09375 12 16.535156 12 16.894531 12.355469 16.894531 12.796875zM16.894531 12.796875"/>
    <path d="M5.78125 12.28125C6.5625 11.5 7.832031 11.5 8.609375 12.28125 8.6875 12.359375 8.792969 12.398438 8.894531 12.398438 8.996094 12.398438 9.097656 12.359375 9.175781 12.28125 9.332031 12.125 9.332031 11.871094 9.175781 11.714844 8.085938 10.625 6.308594 10.625 5.214844 11.714844 5.058594 11.871094 5.058594 12.125 5.214844 12.28125 5.371094 12.4375 5.625 12.4375 5.78125 12.28125zM15.382812 12.28125C16.164062 11.5 17.433594 11.5 18.210938 12.28125 18.289062 12.359375 18.394531 12.398438 18.496094 12.398438 18.597656 12.398438 18.699219 12.359375 18.777344 12.28125 18.933594 12.125 18.933594 11.871094 18.777344 11.714844 17.6875 10.625 15.910156 10.625 14.816406 11.714844 14.660156 11.871094 14.660156 12.125 14.816406 12.28125 14.972656 12.4375 15.226562 12.4375 15.382812 12.28125zM12.898438 17.199219L10.898438 17.199219C9.6875 17.199219 8.699219 18.1875 8.699219 19.398438L8.699219 19.570312C8.699219 20.46875 9.429688 21.199219 10.328125 21.199219L10.699219 21.199219C10.921875 21.199219 11.101562 21.019531 11.101562 20.800781L11.101562 20.398438 12.699219 20.398438 12.699219 20.800781C12.699219 21.019531 12.878906 21.199219 13.101562 21.199219L13.472656 21.199219C14.371094 21.199219 15.101562 20.46875 15.101562 19.570312L15.101562 19.398438C15.101562 18.1875 14.113281 17.199219 12.898438 17.199219zM14.300781 19.570312C14.300781 20.019531 13.945312 20.382812 13.5 20.398438L13.5 20C13.5 19.777344 13.320312 19.597656 13.101562 19.597656L10.699219 19.597656C10.480469 19.597656 10.300781 19.777344 10.300781 20L10.300781 20.398438C9.855469 20.382812 9.5 20.019531 9.5 19.570312L9.5 19.398438C9.5 18.628906 10.128906 18 10.898438 18L12.898438 18C13.671875 18 14.300781 18.628906 14.300781 19.398438zM14.300781 19.570312"/>
    <path d="M 12.699219 18.398438 L 11.101562 18.398438 C 10.878906 18.398438 10.699219 18.578125 10.699219 18.800781 C 10.699219 19.019531 10.878906 19.199219 11.101562 19.199219 L 12.699219 19.199219 C 12.921875 19.199219 13.101562 19.019531 13.101562 18.800781 C 13.101562 18.578125 12.921875 18.398438 12.699219 18.398438 Z M 12.699219 18.398438"/>
</svg>

<svg xmlns="http://www.w3.org/2000/svg" width="32" height="32" viewBox="0 0 24 24">
    <path d="M21.703 5.195h-1.738l-.813-1.863c-.109-.547-.77-2.055-1.023-2.387-.64-.836-1.781-1.16-2.879-.8l-2.61 1.144a1.87 1.87 0 0 1-1.195-.016L8.434.188C7.859-.02 7.204.047 6.594.37c-.766.414-1.367 1.176-1.563 1.98-.015.047-.078.196-.144.36a9.599 9.599 0 0 0-.23.605l-.821 1.88h-1.54a1.8 1.8 0 0 0 0 3.6h.802v11.602c0 1.106.898 2 2 2H6.3v.68c0 .508.414.922.922.922h9.355a.924.924 0 0 0 .922-.922v-.68h1.203c1.102 0 2-.894 2-2V8.797h1a1.8 1.8 0 0 0 0-3.602zM5.403 3.61c.011-.035.015-.03.019-.066.02-.063.137-.36.207-.535.129-.317.16-.395.172-.45.148-.597.605-1.18 1.172-1.48.289-.156.726-.305 1.191-.137l3.012 1.082c.55.2 1.16.207 1.75.012l2.613-1.14c.734-.247 1.52-.028 1.953.539.203.261.836 1.754.88 2.07a.35.35 0 0 0 .026.105l.692 1.59H4.71zm11.296 19.47a.122.122 0 0 1-.12.12H7.222a.123.123 0 0 1-.125-.12v-.68h9.601zm-.797-1.477H7.898V18c0-.664.54-1.2 1.204-1.2h5.597a1.2 1.2 0 0 1 1.203 1.2zm4-5.567a2.401 2.401 0 0 0-2 2.363v1.2c0 .222.176.402.399.402.222 0 .402-.18.402-.402v-1.2a1.6 1.6 0 0 1 1.2-1.543v3.543c0 .665-.54 1.204-1.2 1.204H16.7V18c0-1.105-.894-2-2-2H9.102a2.002 2.002 0 0 0-2.004 2v3.602h-2c-.66 0-1.2-.54-1.2-1.204v-3.543c.688.18 1.2.801 1.2 1.543v1.2a.401.401 0 0 0 .8 0v-1.2a2.401 2.401 0 0 0-2-2.363v-1.43c.547.938 1.286 1.274 1.961 1.34.344.035.676.055.996.055 1.575 0 2.844-.426 3.778-1.27.629-.566 1.02-1.25 1.265-1.91a4.79 4.79 0 0 0 1.27 1.91c.934.844 2.2 1.27 3.777 1.27.32 0 .653-.02.996-.055.672-.066 1.414-.402 1.961-1.34zm-16-5.234a8.607 8.607 0 0 1 7.59 0c-.031.726-.246 2.297-1.398 3.336-.946.855-2.344 1.195-4.156 1.011-1.618-.16-2.008-2.398-2.036-4.347zm8.403 0a8.615 8.615 0 0 1 7.593 0c-.027 1.949-.418 4.187-2.039 4.347-1.812.184-3.207-.156-4.156-1.011-1.148-1.04-1.363-2.61-1.398-3.336zm7.597-.88c-2.53-1.124-5.523-1.062-8.004.192-2.476-1.254-5.468-1.316-8-.191V8.797h16.004zm1.801-1.925H2.297a1 1 0 1 1 0-2h19.406a1 1 0 1 1 0 2zm0 0"/>
    <path d="M8.492 12.797a.799.799 0 1 1-1.597.004.799.799 0 0 1 1.597-.004zm0 0M16.895 12.797a.802.802 0 0 1-1.602 0c0-.442.36-.797.8-.797.442 0 .802.355.802.797zm0 0"/>
    <path d="M5.781 12.281a2 2 0 0 1 2.828 0 .405.405 0 0 0 .286.117.4.4 0 0 0 .281-.684 2.808 2.808 0 0 0-3.961 0 .4.4 0 0 0 .566.567zm0 0M15.383 12.281a2 2 0 0 1 2.828 0 .405.405 0 0 0 .285.117.4.4 0 0 0 .281-.684 2.808 2.808 0 0 0-3.96 0 .4.4 0 0 0 .566.567zm0 0M12.898 17.2h-2c-1.21 0-2.199.988-2.199 2.198v.172c0 .899.73 1.63 1.63 1.63h.37c.223 0 .403-.18.403-.4v-.402h1.597v.403c0 .219.18.398.403.398h.37a1.63 1.63 0 0 0 1.63-1.629v-.172c0-1.21-.989-2.199-2.204-2.199zm1.403 2.37c0 .45-.356.813-.801.828V20a.401.401 0 0 0-.398-.402h-2.403a.401.401 0 0 0-.398.402v.398a.828.828 0 0 1-.801-.828v-.172c0-.77.629-1.398 1.398-1.398h2c.774 0 1.403.629 1.403 1.398zm0 0"/>
    <path d="M12.7 18.398h-1.598a.401.401 0 0 0 0 .8l1.597.001a.401.401 0 1 0 0-.8zm0 0"/>
</svg>
